dist/images/socialMedia/linkedin.svg

<svg width="13" height="13" viewBox="0 0 13 13" fill="none" xmlns="http://www.w3.org/2000/svg">
<path d="M12.9985 12.9998H13.001V8.23136C13.001 5.89793 12.4983 4.10278 9.77127 4.10278C8.46109 4.10278 7.58003 4.82135 7.22201 5.50437H7.18393V4.32115H4.59912V12.9998H7.29057V8.7011C7.29057 7.56866 7.50385 6.4743 8.90544 6.4743C10.2867 6.4743 10.307 7.76671 10.307 8.77219V12.9998H12.9985Z" fill="white"/>
<path d="M0.212891 4.32153H2.90942V13.0002H0.212891V4.32153Z" fill="white"/>
<path d="M1.56155 0C0.698254 0 0 0.698254 0 1.56155C0 2.42485 0.698254 3.13834 1.56155 3.13834C2.42485 3.13834 3.1231 2.42231 3.1231 1.56155C3.12056 0.698254 2.42231 0 1.56155 0Z" fill="white"/>
</svg>

<svg width="13" height="13" fill="none" xmlns="http://www.w3.org/2000/svg"><path d="M12.998 13h.003V8.23c0-2.333-.503-4.128-3.23-4.128-1.31 0-2.191.718-2.549 1.401h-.038V4.321H4.599V13h2.692V8.7c0-1.132.213-2.227 1.614-2.227 1.382 0 1.402 1.293 1.402 2.298V13h2.691zM.213 4.322h2.696V13H.213V4.322zM1.562 0A1.56 1.56 0 0 0 0 1.562c0 .863.698 1.576 1.562 1.576.863 0 1.561-.716 1.561-1.576A1.564 1.564 0 0 0 1.562 0z" fill="#fff"/></svg>
